Newaita-dark/apps/22/com.github.timecraft.notifier.svg

<svg height="22" viewBox="0 0 22 22" width="22" xmlns="http://www.w3.org/2000/svg" xmlns:xlink="http://www.w3.org/1999/xlink"><linearGradient id="a" gradientUnits="userSpaceOnUse" x1="10.9151136" x2="10.9151136" y1="19.27333715" y2="20.18293042919"><stop offset="0" stop-opacity=".27451"/><stop offset="1" stop-opacity="0"/></linearGradient><linearGradient id="b"><stop offset="0" stop-opacity=".313726"/><stop offset=".222222" stop-opacity=".27451"/><stop offset="1" stop-opacity="0"/></linearGradient><radialGradient id="c" cx="450.908936" cy="189.579361" gradientTransform="matrix(.00000012 -.0537161 -.0966889 -.00000007 35.839821 43.721791)" gradientUnits="userSpaceOnUse" r="21.166656" xlink:href="#b"/><radialGradient id="d" cx="450.908936" cy="189.579361" gradientTransform="matrix(-.00000012 .0537161 .0966889 .00000007 -14.009609 -5.175142)" gradientUnits="userSpaceOnUse" r="21.166656" xlink:href="#b"/><radialGradient id="e" cx="450.908936" cy="189.579361" gradientTransform="matrix(-.00000012 -.0537161 .0966889 -.00000007 -14.009609 43.721791)" gradientUnits="userSpaceOnUse" r="21.166656" xlink:href="#b"/><radialGradient id="f" cx="450.908936" cy="189.579361" gradientTransform="matrix(.00000012 .0537161 -.0966889 .00000007 35.839819 -5.175142)" gradientUnits="userSpaceOnUse" r="21.166656" xlink:href="#b"/><linearGradient id="g" gradientUnits="userSpaceOnUse" x1="7.27674417081" x2="7.27674417081" y1="19.27333515" y2="1.99106765838"><stop offset="0" stop-color="#f44336"/><stop offset="1" stop-color="#ef5350"/></linearGradient><linearGradient id="h" gradientUnits="userSpaceOnUse" x1="10.938622" x2="10.938622" y1="18.36375401286" y2="3.81028148985"><stop offset="0" stop-color="#bdbdbd"/><stop offset="1" stop-color="#e0e0e0"/></linearGradient><path d="m4.09375 19.207031h13.644531v1.007813h-13.644531zm0 0" fill="url(#a)"/><path d="m17.738281 19.273438h1.816407v-.910157h-1.816407zm0 0" fill="url(#c)"/><path d="m4.09375 19.273438h-1.820312v.910156h1.820312zm0 0" fill="url(#d)"/><path d="m4.09375 19.273438h-1.820312v-.910157h1.820312zm0 0" fill="url(#e)"/><path d="m17.738281 19.273438h1.816407v.910156h-1.816407zm0 0" fill="url(#f)"/><path d="m3.183594 1.992188h15.464844c.5 0 .90625.40625.90625.910156v15.460937c0 .503907-.40625.910157-.90625.910157h-15.464844c-.503906 0-.910156-.40625-.910156-.910157v-15.460937c0-.503906.40625-.910156.910156-.910156zm0 0" fill="url(#g)"/><path d="m3.183594 1.992188c-.503906 0-.910156.40625-.910156.910156v.113281c0-.503906.40625-.910156.910156-.910156h15.464844c.503906 0 .90625.40625.90625.910156v-.113281c0-.503906-.402344-.910156-.90625-.910156zm0 0" fill="#e6e6e6" fill-opacity=".392157"/><path d="m3.183594 19.273438c-.503906 0-.910156-.40625-.910156-.910157v-.113281c0 .503906.40625.910156.910156.910156h15.464844c.503906 0 .90625-.40625.90625-.910156v.113281c0 .503907-.402344.910157-.90625.910157zm0 0" fill-opacity=".196078"/><path d="m74.083834-168.640791h359.874725c11.635253 0 21.088895 9.453643 21.088895 21.179796v359.783824c0 11.726153-9.453642 21.179796-21.088895 21.179796h-359.874725c-11.726152 0-21.179795-9.453643-21.179795-21.179796v-359.783824c0-11.726153 9.453643-21.179796 21.179795-21.179796zm0 0" fill="none" stroke="#212121" stroke-linecap="round" stroke-width="3" transform="matrix(.0429729 0 0 .0429729 0 9.239163)"/><path d="m10.027344 5.628906c-.261719 0-.472656.226563-.449219.488282l.453125 5.914062c.019531.238281.214844.417969.453125.417969h.910156c.234375 0 .433594-.179688.453125-.417969l.453125-5.914062c.019531-.261719-.1875-.488282-.453125-.488282zm.910156 7.730469c-.503906 0-.910156.40625-.910156.910156 0 .503907.40625.910157.910156.910157s.910156-.40625.910156-.910157c0-.503906-.40625-.910156-.910156-.910156zm0 0" fill="url(#h)"/><path d="m10.027344 5.628906c-.261719 0-.472656.226563-.449219.488282l.011719.191406c.054687-.195313.226562-.335938.4375-.335938h1.820312c.210938 0 .386719.140625.4375.335938l.015625-.191406c.019531-.261719-.1875-.488282-.453125-.488282zm.910156 7.730469c-.503906 0-.910156.40625-.910156.910156 0 .058594.007812.117188.015625.171875.082031-.421875.449219-.738281.894531-.738281s.816406.316406.894531.738281c.011719-.054687.015625-.113281.015625-.171875 0-.503906-.40625-.910156-.910156-.910156zm0 0" fill="#fff" fill-opacity=".86129"/><path d="m9.597656 6.398438c-.019531.054687-.027344.113281-.019531.175781l.453125 5.914062c.019531.234375.214844.417969.453125.417969h.910156c.234375 0 .433594-.183594.453125-.417969l.453125-5.914062c.003907-.0625-.003906-.121094-.019531-.175781l-.433594 5.632812c-.019531.238281-.21875.417969-.453125.417969h-.910156c-.238281 0-.433594-.179688-.453125-.417969zm.460938 8.101562c-.019532.070312-.03125.148438-.03125.226562 0 .503907.40625.910157.910156.910157s.910156-.40625.910156-.910157c0-.078124-.007812-.15625-.027344-.226562-.101562.390625-.457031.679688-.882812.679688s-.78125-.289063-.878906-.679688zm0 0" fill-opacity=".235294"/><path d="m233.341353-84.012509c-6.090327 0-10.998949 5.272224-10.453547 11.362552l10.544448 137.623221c.454502 5.544925 4.999522 9.726344 10.544447 9.726344h21.179796c5.454025 0 10.089946-4.181419 10.544448-9.726344l10.544447-137.623221c.454502-6.090328-4.363219-11.362552-10.544447-11.362552zm21.179796 179.891912c-11.726153 0-21.179796 9.453643-21.179796 21.179796s9.453643 21.179796 21.179796 21.179796 21.179796-9.453643 21.179796-21.179796-9.453643-21.179796-21.179796-21.179796zm0 0" fill="none" stroke="#212121" stroke-linecap="round" stroke-linejoin="round" stroke-width="3" transform="matrix(.0429729 0 0 .0429729 0 9.239163)"/></svg>

<?xml version="1.0" encoding="UTF-8"?>
<svg xmlns="http://www.w3.org/2000/svg" xmlns:xlink="http://www.w3.org/1999/xlink" width="22px" height="22px" viewBox="0 0 22 22" version="1.1">
<defs>
<linearGradient id="linear0" gradientUnits="userSpaceOnUse" x1="254" y1="233.5" x2="254" y2="254.666672" gradientTransform="matrix(0.0429729,0,0,0.0429729,-0.00000262285,9.239165)">
<stop offset="0" style="stop-color:rgb(0%,0%,0%);stop-opacity:0.27451;"/>
<stop offset="1" style="stop-color:rgb(0%,0%,0%);stop-opacity:0;"/>
</linearGradient>
<radialGradient id="radial0" gradientUnits="userSpaceOnUse" cx="450.908936" cy="189.579361" fx="450.908936" fy="189.579361" r="21.166656" gradientTransform="matrix(0.000000119742,-0.0537161,-0.0966889,-0.0000000698078,35.839821,43.721791)">
<stop offset="0" style="stop-color:rgb(0%,0%,0%);stop-opacity:0.313726;"/>
<stop offset="0.222222" style="stop-color:rgb(0%,0%,0%);stop-opacity:0.27451;"/>
<stop offset="1" style="stop-color:rgb(0%,0%,0%);stop-opacity:0;"/>
</radialGradient>
<radialGradient id="radial1" gradientUnits="userSpaceOnUse" cx="450.908936" cy="189.579361" fx="450.908936" fy="189.579361" r="21.166656" gradientTransform="matrix(-0.000000119742,0.0537161,0.0966889,0.0000000698078,-14.009609,-5.175142)">
<stop offset="0" style="stop-color:rgb(0%,0%,0%);stop-opacity:0.313726;"/>
<stop offset="0.222222" style="stop-color:rgb(0%,0%,0%);stop-opacity:0.27451;"/>
<stop offset="1" style="stop-color:rgb(0%,0%,0%);stop-opacity:0;"/>
</radialGradient>
<radialGradient id="radial2" gradientUnits="userSpaceOnUse" cx="450.908936" cy="189.579361" fx="450.908936" fy="189.579361" r="21.166656" gradientTransform="matrix(-0.000000119742,-0.0537161,0.0966889,-0.0000000698078,-14.009609,43.721791)">
<stop offset="0" style="stop-color:rgb(0%,0%,0%);stop-opacity:0.313726;"/>
<stop offset="0.222222" style="stop-color:rgb(0%,0%,0%);stop-opacity:0.27451;"/>
<stop offset="1" style="stop-color:rgb(0%,0%,0%);stop-opacity:0;"/>
</radialGradient>
<radialGradient id="radial3" gradientUnits="userSpaceOnUse" cx="450.908936" cy="189.579361" fx="450.908936" fy="189.579361" r="21.166656" gradientTransform="matrix(0.000000119742,0.0537161,-0.0966889,0.0000000698078,35.839819,-5.175142)">
<stop offset="0" style="stop-color:rgb(0%,0%,0%);stop-opacity:0.313726;"/>
<stop offset="0.222222" style="stop-color:rgb(0%,0%,0%);stop-opacity:0.27451;"/>
<stop offset="1" style="stop-color:rgb(0%,0%,0%);stop-opacity:0;"/>
</radialGradient>
<linearGradient id="linear1" gradientUnits="userSpaceOnUse" x1="169.333328" y1="233.5" x2="169.333328" y2="-168.666656" gradientTransform="matrix(0.0429729,0,0,0.0429729,0,9.239163)">
<stop offset="0" style="stop-color:rgb(95.686275%,26.274511%,21.176471%);stop-opacity:1;"/>
<stop offset="1" style="stop-color:rgb(93.725491%,32.549021%,31.37255%);stop-opacity:1;"/>
</linearGradient>
<linearGradient id="linear2" gradientUnits="userSpaceOnUse" x1="960" y1="1455.118164" x2="960" y2="175.118118" gradientTransform="matrix(0.0113699,0,0,0.0113699,0.0235177,1.819206)">
<stop offset="0" style="stop-color:rgb(74.117649%,74.117649%,74.117649%);stop-opacity:1;"/>
<stop offset="1" style="stop-color:rgb(87.843138%,87.843138%,87.843138%);stop-opacity:1;"/>
</linearGradient>
</defs>
<g id="surface1">
<path style=" stroke:none;fill-rule:nonzero;fill:url(#linear0);" d="M 4.09375 19.207031 L 17.738281 19.207031 L 17.738281 20.214844 L 4.09375 20.214844 Z M 4.09375 19.207031 "/>
<path style=" stroke:none;fill-rule:nonzero;fill:url(#radial0);" d="M 17.738281 19.273438 L 19.554688 19.273438 L 19.554688 18.363281 L 17.738281 18.363281 Z M 17.738281 19.273438 "/>
<path style=" stroke:none;fill-rule:nonzero;fill:url(#radial1);" d="M 4.09375 19.273438 L 2.273438 19.273438 L 2.273438 20.183594 L 4.09375 20.183594 Z M 4.09375 19.273438 "/>
<path style=" stroke:none;fill-rule:nonzero;fill:url(#radial2);" d="M 4.09375 19.273438 L 2.273438 19.273438 L 2.273438 18.363281 L 4.09375 18.363281 Z M 4.09375 19.273438 "/>
<path style=" stroke:none;fill-rule:nonzero;fill:url(#radial3);" d="M 17.738281 19.273438 L 19.554688 19.273438 L 19.554688 20.183594 L 17.738281 20.183594 Z M 17.738281 19.273438 "/>
<path style=" stroke:none;fill-rule:nonzero;fill:url(#linear1);" d="M 3.183594 1.992188 L 18.648438 1.992188 C 19.148438 1.992188 19.554688 2.398438 19.554688 2.902344 L 19.554688 18.363281 C 19.554688 18.867188 19.148438 19.273438 18.648438 19.273438 L 3.183594 19.273438 C 2.679688 19.273438 2.273438 18.867188 2.273438 18.363281 L 2.273438 2.902344 C 2.273438 2.398438 2.679688 1.992188 3.183594 1.992188 Z M 3.183594 1.992188 "/>
<path style=" stroke:none;fill-rule:nonzero;fill:rgb(90.196079%,90.196079%,90.196079%);fill-opacity:0.392157;" d="M 3.183594 1.992188 C 2.679688 1.992188 2.273438 2.398438 2.273438 2.902344 L 2.273438 3.015625 C 2.273438 2.511719 2.679688 2.105469 3.183594 2.105469 L 18.648438 2.105469 C 19.152344 2.105469 19.554688 2.511719 19.554688 3.015625 L 19.554688 2.902344 C 19.554688 2.398438 19.152344 1.992188 18.648438 1.992188 Z M 3.183594 1.992188 "/>
<path style=" stroke:none;fill-rule:nonzero;fill:rgb(0%,0%,0%);fill-opacity:0.196078;" d="M 3.183594 19.273438 C 2.679688 19.273438 2.273438 18.867188 2.273438 18.363281 L 2.273438 18.25 C 2.273438 18.753906 2.679688 19.160156 3.183594 19.160156 L 18.648438 19.160156 C 19.152344 19.160156 19.554688 18.753906 19.554688 18.25 L 19.554688 18.363281 C 19.554688 18.867188 19.152344 19.273438 18.648438 19.273438 Z M 3.183594 19.273438 "/>
<path style="fill:none;stroke-width:3;stroke-linecap:round;stroke-linejoin:miter;stroke:rgb(12.941177%,12.941177%,12.941177%);stroke-opacity:1;stroke-miterlimit:4;" d="M 74.083834 -168.640791 L 433.958559 -168.640791 C 445.593812 -168.640791 455.047454 -159.187148 455.047454 -147.460995 L 455.047454 212.322829 C 455.047454 224.048982 445.593812 233.502625 433.958559 233.502625 L 74.083834 233.502625 C 62.357682 233.502625 52.904039 224.048982 52.904039 212.322829 L 52.904039 -147.460995 C 52.904039 -159.187148 62.357682 -168.640791 74.083834 -168.640791 Z M 74.083834 -168.640791 " transform="matrix(0.0429729,0,0,0.0429729,0,9.239163)"/>
<path style=" stroke:none;fill-rule:nonzero;fill:url(#linear2);" d="M 10.027344 5.628906 C 9.765625 5.628906 9.554688 5.855469 9.578125 6.117188 L 10.03125 12.03125 C 10.050781 12.269531 10.246094 12.449219 10.484375 12.449219 L 11.394531 12.449219 C 11.628906 12.449219 11.828125 12.269531 11.847656 12.03125 L 12.300781 6.117188 C 12.320312 5.855469 12.113281 5.628906 11.847656 5.628906 Z M 10.9375 13.359375 C 10.433594 13.359375 10.027344 13.765625 10.027344 14.269531 C 10.027344 14.773438 10.433594 15.179688 10.9375 15.179688 C 11.441406 15.179688 11.847656 14.773438 11.847656 14.269531 C 11.847656 13.765625 11.441406 13.359375 10.9375 13.359375 Z M 10.9375 13.359375 "/>
<path style=" stroke:none;fill-rule:nonzero;fill:rgb(100%,100%,100%);fill-opacity:0.86129;" d="M 10.027344 5.628906 C 9.765625 5.628906 9.554688 5.855469 9.578125 6.117188 L 9.589844 6.308594 C 9.644531 6.113281 9.816406 5.972656 10.027344 5.972656 L 11.847656 5.972656 C 12.058594 5.972656 12.234375 6.113281 12.285156 6.308594 L 12.300781 6.117188 C 12.320312 5.855469 12.113281 5.628906 11.847656 5.628906 Z M 10.9375 13.359375 C 10.433594 13.359375 10.027344 13.765625 10.027344 14.269531 C 10.027344 14.328125 10.035156 14.386719 10.042969 14.441406 C 10.125 14.019531 10.492188 13.703125 10.9375 13.703125 C 11.382812 13.703125 11.753906 14.019531 11.832031 14.441406 C 11.84375 14.386719 11.847656 14.328125 11.847656 14.269531 C 11.847656 13.765625 11.441406 13.359375 10.9375 13.359375 Z M 10.9375 13.359375 "/>
<path style=" stroke:none;fill-rule:nonzero;fill:rgb(0%,0%,0%);fill-opacity:0.235294;" d="M 9.597656 6.398438 C 9.578125 6.453125 9.570312 6.511719 9.578125 6.574219 L 10.03125 12.488281 C 10.050781 12.722656 10.246094 12.90625 10.484375 12.90625 L 11.394531 12.90625 C 11.628906 12.90625 11.828125 12.722656 11.847656 12.488281 L 12.300781 6.574219 C 12.304688 6.511719 12.296875 6.453125 12.28125 6.398438 L 11.847656 12.03125 C 11.828125 12.269531 11.628906 12.449219 11.394531 12.449219 L 10.484375 12.449219 C 10.246094 12.449219 10.050781 12.269531 10.03125 12.03125 Z M 10.058594 14.5 C 10.039062 14.570312 10.027344 14.648438 10.027344 14.726562 C 10.027344 15.230469 10.433594 15.636719 10.9375 15.636719 C 11.441406 15.636719 11.847656 15.230469 11.847656 14.726562 C 11.847656 14.648438 11.839844 14.570312 11.820312 14.5 C 11.71875 14.890625 11.363281 15.179688 10.9375 15.179688 C 10.511719 15.179688 10.15625 14.890625 10.058594 14.5 Z M 10.058594 14.5 "/>
<path style="fill:none;stroke-width:3;stroke-linecap:round;stroke-linejoin:round;stroke:rgb(12.941177%,12.941177%,12.941177%);stroke-opacity:1;stroke-miterlimit:4;" d="M 233.341353 -84.012509 C 227.251026 -84.012509 222.342404 -78.740285 222.887806 -72.649957 L 233.432254 64.973264 C 233.886756 70.518189 238.431776 74.699608 243.976701 74.699608 L 265.156497 74.699608 C 270.610522 74.699608 275.246443 70.518189 275.700945 64.973264 L 286.245392 -72.649957 C 286.699894 -78.740285 281.882173 -84.012509 275.700945 -84.012509 Z M 254.521149 95.879403 C 242.794996 95.879403 233.341353 105.333046 233.341353 117.059199 C 233.341353 128.785352 242.794996 138.238995 254.521149 138.238995 C 266.247302 138.238995 275.700945 128.785352 275.700945 117.059199 C 275.700945 105.333046 266.247302 95.879403 254.521149 95.879403 Z M 254.521149 95.879403 " transform="matrix(0.0429729,0,0,0.0429729,0,9.239163)"/>
</g>
</svg>
